svg/kettle_steam_outline.svg

<svg xmlns="http://www.w3.org/2000/svg" viewBox="0 0 24 24"><path d="M9.5 3C4.8 3 1 5.7 1 9c0 1.2.5 2.3 1.4 3.3C1.5 13.5.985 15 1 16.5V20c0 1.1.9 2 2 2h13c1.11 0 2-.89 2-2v-3.5c0-1.2-.3-2.4-1-3.5l2-2-3-3-2.1 2.1a9.19 9.19 0 0 0-9.3.3C4.22 10.03 4 9.53 4 9c0-1.8 2.5-3.3 5.5-3.3 1.4 0 2.8.4 3.8 1l2-2A10.05 10.05 0 0 0 9.5 3m0 8c3.5 0 6.5 3 6.5 5.5V20H3v-3.5C3 14 6 11 9.5 11m.5 1.5c-3 0-5 1.5-5 4.5v1h2v-1c0-1 0-3.5 3-4.5m13-5.2c0 1.63-1.09 3.3-2.62 3.67l-.67-.68L19 9.6h.75c1 0 1.75-1.38 1.75-2.4s-.85-2.06-1.85-2.06v-1.5C21.5 3.64 23 5.45 23 7.3m-5.35-.57c-.62-.61-1-1.45-1-2.38C16.65 2.5 18.15 1 20 1v1.5c-1 0-1.85.83-1.85 1.85S19 6.2 20 6.2v1.5c-.82 0-1.58.25-2.21.68l-1.07-1.07c.28-.22.6-.42.93-.58"/></svg>

<?xml version="1.0" encoding="UTF-8"?><!DOCTYPE svg PUBLIC "-//W3C//DTD SVG 1.1//EN" "http://www.w3.org/Graphics/SVG/1.1/DTD/svg11.dtd"><svg xmlns="http://www.w3.org/2000/svg" xmlns:xlink="http://www.w3.org/1999/xlink" version="1.1" id="mdi-kettle-steam-outline" width="24" height="24" viewBox="0 0 24 24"><path d="M9.5 3C4.8 3 1 5.7 1 9C1 10.2 1.5 11.3 2.4 12.3C1.5 13.5 .985 15 1 16.5V20C1 21.1 1.9 22 3 22H16C17.11 22 18 21.11 18 20V16.5C18 15.3 17.7 14.1 17 13L19 11L16 8L13.9 10.1C10.97 8.5 7.42 8.63 4.6 10.4C4.22 10.03 4 9.53 4 9C4 7.2 6.5 5.7 9.5 5.7C10.9 5.7 12.3 6.1 13.3 6.7L15.3 4.7C13.59 3.55 11.56 2.96 9.5 3M9.5 11C13 11 16 14 16 16.5V20H3V16.5C3 14 6 11 9.5 11M10 12.5C7 12.5 5 14 5 17V18H7V17C7 16 7 13.5 10 12.5M23 7.3C23 8.93 21.91 10.6 20.38 10.97L19.71 10.29L19 9.6H19.75C20.75 9.6 21.5 8.22 21.5 7.2C21.5 6.18 20.65 5.14 19.65 5.14V3.64C21.5 3.64 23 5.45 23 7.3M17.65 6.73C17.03 6.12 16.65 5.28 16.65 4.35C16.65 2.5 18.15 1 20 1V2.5C19 2.5 18.15 3.33 18.15 4.35C18.15 5.37 19 6.2 20 6.2V7.7C19.18 7.7 18.42 7.95 17.79 8.38L16.72 7.31C17 7.09 17.32 6.89 17.65 6.73Z" /></svg>
